(G-CODE GENERATED BY FLATCAM v8.993 - www.flatcam.org - Version Date: 2020/06/05)

(Name: teste.drl_panelized_cnc)
(Type: G-code from Excellon)
(Units: MM)

(Created on segunda, 12 junho 2023 at 13:23)

(This preprocessor is the default preprocessor used by FlatCAM.)
(It is made to work with MACH3 compatible motion controllers.)


(TOOLS DIAMETER: )
(Tool: 1 -> Dia: 0.70104)
(Tool: 2 -> Dia: 0.8000999999999999)
(Tool: 3 -> Dia: 0.8000999999999999)
(Tool: 4 -> Dia: 0.89916)
(Tool: 5 -> Dia: 0.9143999999999999)
(Tool: 6 -> Dia: 1.016)
(Tool: 7 -> Dia: 1.30048)

(FEEDRATE Z: )
(Tool: 1 -> Feedrate: 75.0)
(Tool: 2 -> Feedrate: 75.0)
(Tool: 3 -> Feedrate: 75.0)
(Tool: 4 -> Feedrate: 75.0)
(Tool: 5 -> Feedrate: 75.0)
(Tool: 6 -> Feedrate: 75.0)
(Tool: 7 -> Feedrate: 75.0)

(FEEDRATE RAPIDS: )
(Tool: 1 -> Feedrate Rapids: 1500)
(Tool: 2 -> Feedrate Rapids: 1500)
(Tool: 3 -> Feedrate Rapids: 1500)
(Tool: 4 -> Feedrate Rapids: 1500)
(Tool: 5 -> Feedrate Rapids: 1500)
(Tool: 6 -> Feedrate Rapids: 1500)
(Tool: 7 -> Feedrate Rapids: 1500)

(Z_CUT: )
(Tool: 1 -> Z_Cut: -2.0)
(Tool: 2 -> Z_Cut: -2.0)
(Tool: 3 -> Z_Cut: -2.0)
(Tool: 4 -> Z_Cut: -2.0)
(Tool: 5 -> Z_Cut: -2.0)
(Tool: 6 -> Z_Cut: -2.0)
(Tool: 7 -> Z_Cut: -2.0)

(Tools Offset: )
(Tool: 1 -> Offset Z: -0.0)
(Tool: 3 -> Offset Z: -0.0)
(Tool: 4 -> Offset Z: -0.0)
(Tool: 5 -> Offset Z: -0.0)
(Tool: 6 -> Offset Z: -0.0)
(Tool: 7 -> Offset Z: -0.0)

(Z_MOVE: )
(Tool: 1 -> Z_Move: 2.0)
(Tool: 2 -> Z_Move: 2.0)
(Tool: 3 -> Z_Move: 2.0)
(Tool: 4 -> Z_Move: 2.0)
(Tool: 5 -> Z_Move: 2.0)
(Tool: 6 -> Z_Move: 2.0)
(Tool: 7 -> Z_Move: 2.0)

(Z Start: None mm)
(Z End: 2.0 mm)
(Steps per circle: 64)
(Preprocessor Excellon: default)

(X range:   -0.4000 ...   68.9801  mm)
(Y range:   -0.4000 ...  107.2161  mm)

(Spindle Speed: None RPM)
G21
G90
G94



G00 Z2.0000

G01 F75.00
M03
G00 X66.7005 Y28.6004
G01 Z-2.0000
G01 Z0
G00 Z2.0000
G00 X59.0805 Y28.6004
G01 Z-2.0000
G01 Z0
G00 Z2.0000
G00 X59.0805 Y84.5085
G01 Z-2.0000
G01 Z0
G00 Z2.0000
G00 X66.7005 Y84.5085
G01 Z-2.0000
G01 Z0
G00 Z2.0000
G01 F75.00
M03
G00 X68.5800 Y0.0000
G01 Z-2.0000
G01 Z0
G00 Z2.0000
G00 X68.5800 Y55.9081
G01 Z-2.0000
G01 Z0
G00 Z2.0000
G00 X0.0000 Y55.9081
G01 Z-2.0000
G01 Z0
G00 Z2.0000
G00 X0.0000 Y0.0000
G01 Z-2.0000
G01 Z0
G00 Z2.0000
G01 F75.00
M03
G00 X52.9337 Y22.5552
G01 Z-2.0000
G01 Z0
G00 Z2.0000
G00 X52.6288 Y16.1036
G01 Z-2.0000
G01 Z0
G00 Z2.0000
G00 X52.4256 Y10.0584
G01 Z-2.0000
G01 Z0
G00 Z2.0000
G00 X42.2657 Y10.0584
G01 Z-2.0000
G01 Z0
G00 Z2.0000
G00 X42.4689 Y16.1036
G01 Z-2.0000
G01 Z0
G00 Z2.0000
G00 X42.7737 Y22.5552
G01 Z-2.0000
G01 Z0
G00 Z2.0000
G00 X42.1133 Y29.9720
G01 Z-2.0000
G01 Z0
G00 Z2.0000
G00 X37.2873 Y29.9720
G01 Z-2.0000
G01 Z0
G00 Z2.0000
G00 X32.7153 Y29.8704
G01 Z-2.0000
G01 Z0
G00 Z2.0000
G00 X27.9401 Y29.8704
G01 Z-2.0000
G01 Z0
G00 Z2.0000
G00 X23.1649 Y29.8704
G01 Z-2.0000
G01 Z0
G00 Z2.0000
G00 X18.5929 Y29.7688
G01 Z-2.0000
G01 Z0
G00 Z2.0000
G00 X13.8685 Y29.8196
G01 Z-2.0000
G01 Z0
G00 Z2.0000
G00 X9.1440 Y29.8196
G01 Z-2.0000
G01 Z0
G00 Z2.0000
G00 X4.8261 Y29.7688
G01 Z-2.0000
G01 Z0
G00 Z2.0000
G00 X4.8261 Y39.9288
G01 Z-2.0000
G01 Z0
G00 Z2.0000
G00 X9.1440 Y39.9796
G01 Z-2.0000
G01 Z0
G00 Z2.0000
G00 X13.8685 Y39.9796
G01 Z-2.0000
G01 Z0
G00 Z2.0000
G00 X18.5929 Y39.9288
G01 Z-2.0000
G01 Z0
G00 Z2.0000
G00 X23.1649 Y40.0304
G01 Z-2.0000
G01 Z0
G00 Z2.0000
G00 X27.9401 Y40.0304
G01 Z-2.0000
G01 Z0
G00 Z2.0000
G00 X32.7153 Y40.0304
G01 Z-2.0000
G01 Z0
G00 Z2.0000
G00 X37.2873 Y40.1320
G01 Z-2.0000
G01 Z0
G00 Z2.0000
G00 X42.1133 Y40.1320
G01 Z-2.0000
G01 Z0
G00 Z2.0000
G00 X42.2657 Y65.9665
G01 Z-2.0000
G01 Z0
G00 Z2.0000
G00 X42.4689 Y72.0117
G01 Z-2.0000
G01 Z0
G00 Z2.0000
G00 X42.7737 Y78.4633
G01 Z-2.0000
G01 Z0
G00 Z2.0000
G00 X42.1133 Y85.8801
G01 Z-2.0000
G01 Z0
G00 Z2.0000
G00 X37.2873 Y85.8801
G01 Z-2.0000
G01 Z0
G00 Z2.0000
G00 X32.7153 Y85.7785
G01 Z-2.0000
G01 Z0
G00 Z2.0000
G00 X27.9401 Y85.7785
G01 Z-2.0000
G01 Z0
G00 Z2.0000
G00 X23.1649 Y85.7785
G01 Z-2.0000
G01 Z0
G00 Z2.0000
G00 X18.5929 Y85.6769
G01 Z-2.0000
G01 Z0
G00 Z2.0000
G00 X13.8685 Y85.7277
G01 Z-2.0000
G01 Z0
G00 Z2.0000
G00 X9.1440 Y85.7277
G01 Z-2.0000
G01 Z0
G00 Z2.0000
G00 X4.8261 Y85.6769
G01 Z-2.0000
G01 Z0
G00 Z2.0000
G00 X4.8261 Y95.8369
G01 Z-2.0000
G01 Z0
G00 Z2.0000
G00 X9.1440 Y95.8877
G01 Z-2.0000
G01 Z0
G00 Z2.0000
G00 X13.8685 Y95.8877
G01 Z-2.0000
G01 Z0
G00 Z2.0000
G00 X18.5929 Y95.8369
G01 Z-2.0000
G01 Z0
G00 Z2.0000
G00 X23.1649 Y95.9385
G01 Z-2.0000
G01 Z0
G00 Z2.0000
G00 X27.9401 Y95.9385
G01 Z-2.0000
G01 Z0
G00 Z2.0000
G00 X32.7153 Y95.9385
G01 Z-2.0000
G01 Z0
G00 Z2.0000
G00 X37.2873 Y96.0401
G01 Z-2.0000
G01 Z0
G00 Z2.0000
G00 X42.1133 Y96.0401
G01 Z-2.0000
G01 Z0
G00 Z2.0000
G00 X46.7869 Y96.0401
G01 Z-2.0000
G01 Z0
G00 Z2.0000
G00 X46.7869 Y85.8801
G01 Z-2.0000
G01 Z0
G00 Z2.0000
G00 X52.9337 Y78.4633
G01 Z-2.0000
G01 Z0
G00 Z2.0000
G00 X52.6288 Y72.0117
G01 Z-2.0000
G01 Z0
G00 Z2.0000
G00 X52.4256 Y65.9665
G01 Z-2.0000
G01 Z0
G00 Z2.0000
G00 X46.7869 Y40.1320
G01 Z-2.0000
G01 Z0
G00 Z2.0000
G00 X46.7869 Y29.9720
G01 Z-2.0000
G01 Z0
G00 Z2.0000
G01 F75.00
M03
G00 X35.6109 Y10.4648
G01 Z-2.0000
G01 Z0
G00 Z2.0000
G00 X35.6109 Y7.9248
G01 Z-2.0000
G01 Z0
G00 Z2.0000
G00 X24.5872 Y7.9248
G01 Z-2.0000
G01 Z0
G00 Z2.0000
G00 X24.5872 Y10.4648
G01 Z-2.0000
G01 Z0
G00 Z2.0000
G00 X14.1733 Y8.0264
G01 Z-2.0000
G01 Z0
G00 Z2.0000
G00 X14.1733 Y10.5664
G01 Z-2.0000
G01 Z0
G00 Z2.0000
G00 X14.1733 Y63.9345
G01 Z-2.0000
G01 Z0
G00 Z2.0000
G00 X14.1733 Y66.4745
G01 Z-2.0000
G01 Z0
G00 Z2.0000
G00 X24.5872 Y63.8329
G01 Z-2.0000
G01 Z0
G00 Z2.0000
G00 X24.5872 Y66.3729
G01 Z-2.0000
G01 Z0
G00 Z2.0000
G00 X35.6109 Y66.3729
G01 Z-2.0000
G01 Z0
G00 Z2.0000
G00 X35.6109 Y63.8329
G01 Z-2.0000
G01 Z0
G00 Z2.0000
G01 F75.00
M03
G00 X36.0223 Y22.6518
G01 Z-2.0000
G01 Z0
G00 Z2.0000
G00 X36.0223 Y15.0318
G01 Z-2.0000
G01 Z0
G00 Z2.0000
G00 X33.4823 Y15.0318
G01 Z-2.0000
G01 Z0
G00 Z2.0000
G00 X30.9423 Y15.0318
G01 Z-2.0000
G01 Z0
G00 Z2.0000
G00 X28.4023 Y15.0318
G01 Z-2.0000
G01 Z0
G00 Z2.0000
G00 X25.8623 Y15.0318
G01 Z-2.0000
G01 Z0
G00 Z2.0000
G00 X23.3223 Y15.0318
G01 Z-2.0000
G01 Z0
G00 Z2.0000
G00 X20.7823 Y15.0318
G01 Z-2.0000
G01 Z0
G00 Z2.0000
G00 X18.2423 Y15.0318
G01 Z-2.0000
G01 Z0
G00 Z2.0000
G00 X15.7023 Y15.0318
G01 Z-2.0000
G01 Z0
G00 Z2.0000
G00 X13.1623 Y15.0318
G01 Z-2.0000
G01 Z0
G00 Z2.0000
G00 X13.1623 Y22.6518
G01 Z-2.0000
G01 Z0
G00 Z2.0000
G00 X15.7023 Y22.6518
G01 Z-2.0000
G01 Z0
G00 Z2.0000
G00 X18.2423 Y22.6518
G01 Z-2.0000
G01 Z0
G00 Z2.0000
G00 X20.7823 Y22.6518
G01 Z-2.0000
G01 Z0
G00 Z2.0000
G00 X23.3223 Y22.6518
G01 Z-2.0000
G01 Z0
G00 Z2.0000
G00 X25.8623 Y22.6518
G01 Z-2.0000
G01 Z0
G00 Z2.0000
G00 X28.4023 Y22.6518
G01 Z-2.0000
G01 Z0
G00 Z2.0000
G00 X30.9423 Y22.6518
G01 Z-2.0000
G01 Z0
G00 Z2.0000
G00 X33.4823 Y22.6518
G01 Z-2.0000
G01 Z0
G00 Z2.0000
G00 X33.4823 Y70.9398
G01 Z-2.0000
G01 Z0
G00 Z2.0000
G00 X30.9423 Y70.9398
G01 Z-2.0000
G01 Z0
G00 Z2.0000
G00 X28.4023 Y70.9398
G01 Z-2.0000
G01 Z0
G00 Z2.0000
G00 X25.8623 Y70.9398
G01 Z-2.0000
G01 Z0
G00 Z2.0000
G00 X23.3223 Y70.9398
G01 Z-2.0000
G01 Z0
G00 Z2.0000
G00 X20.7823 Y70.9398
G01 Z-2.0000
G01 Z0
G00 Z2.0000
G00 X18.2423 Y70.9398
G01 Z-2.0000
G01 Z0
G00 Z2.0000
G00 X15.7023 Y70.9398
G01 Z-2.0000
G01 Z0
G00 Z2.0000
G00 X13.1623 Y70.9398
G01 Z-2.0000
G01 Z0
G00 Z2.0000
G00 X13.1623 Y78.5598
G01 Z-2.0000
G01 Z0
G00 Z2.0000
G00 X15.7023 Y78.5598
G01 Z-2.0000
G01 Z0
G00 Z2.0000
G00 X18.2423 Y78.5598
G01 Z-2.0000
G01 Z0
G00 Z2.0000
G00 X20.7823 Y78.5598
G01 Z-2.0000
G01 Z0
G00 Z2.0000
G00 X23.3223 Y78.5598
G01 Z-2.0000
G01 Z0
G00 Z2.0000
G00 X25.8623 Y78.5598
G01 Z-2.0000
G01 Z0
G00 Z2.0000
G00 X28.4023 Y78.5598
G01 Z-2.0000
G01 Z0
G00 Z2.0000
G00 X30.9423 Y78.5598
G01 Z-2.0000
G01 Z0
G00 Z2.0000
G00 X33.4823 Y78.5598
G01 Z-2.0000
G01 Z0
G00 Z2.0000
G00 X36.0223 Y78.5598
G01 Z-2.0000
G01 Z0
G00 Z2.0000
G00 X36.0223 Y70.9398
G01 Z-2.0000
G01 Z0
G00 Z2.0000
G01 F75.00
M03
G00 X49.7840 Y50.8000
G01 Z-2.0000
G01 Z0
G00 Z2.0000
G00 X47.2440 Y50.8000
G01 Z-2.0000
G01 Z0
G00 Z2.0000
G00 X44.7041 Y50.8000
G01 Z-2.0000
G01 Z0
G00 Z2.0000
G00 X42.1641 Y50.8000
G01 Z-2.0000
G01 Z0
G00 Z2.0000
G00 X39.6241 Y50.8000
G01 Z-2.0000
G01 Z0
G00 Z2.0000
G00 X37.0840 Y50.8000
G01 Z-2.0000
G01 Z0
G00 Z2.0000
G00 X34.5441 Y50.8000
G01 Z-2.0000
G01 Z0
G00 Z2.0000
G00 X32.0041 Y50.8000
G01 Z-2.0000
G01 Z0
G00 Z2.0000
G00 X29.4640 Y50.8000
G01 Z-2.0000
G01 Z0
G00 Z2.0000
G00 X26.9241 Y50.8000
G01 Z-2.0000
G01 Z0
G00 Z2.0000
G00 X40.6401 Y2.5400
G01 Z-2.0000
G01 Z0
G00 Z2.0000
G00 X38.1000 Y2.5400
G01 Z-2.0000
G01 Z0
G00 Z2.0000
G00 X35.5600 Y2.5400
G01 Z-2.0000
G01 Z0
G00 Z2.0000
G00 X33.0201 Y2.5400
G01 Z-2.0000
G01 Z0
G00 Z2.0000
G00 X30.4801 Y2.5400
G01 Z-2.0000
G01 Z0
G00 Z2.0000
G00 X27.9401 Y2.5400
G01 Z-2.0000
G01 Z0
G00 Z2.0000
G00 X25.4001 Y2.5400
G01 Z-2.0000
G01 Z0
G00 Z2.0000
G00 X22.8601 Y2.5400
G01 Z-2.0000
G01 Z0
G00 Z2.0000
G00 X17.7800 Y2.5400
G01 Z-2.0000
G01 Z0
G00 Z2.0000
G00 X15.2401 Y2.5400
G01 Z-2.0000
G01 Z0
G00 Z2.0000
G00 X12.7001 Y2.5400
G01 Z-2.0000
G01 Z0
G00 Z2.0000
G00 X10.1601 Y2.5400
G01 Z-2.0000
G01 Z0
G00 Z2.0000
G00 X7.6201 Y2.5400
G01 Z-2.0000
G01 Z0
G00 Z2.0000
G00 X5.0801 Y2.5400
G01 Z-2.0000
G01 Z0
G00 Z2.0000
G00 X22.8601 Y50.8000
G01 Z-2.0000
G01 Z0
G00 Z2.0000
G00 X20.3201 Y50.8000
G01 Z-2.0000
G01 Z0
G00 Z2.0000
G00 X17.7800 Y50.8000
G01 Z-2.0000
G01 Z0
G00 Z2.0000
G00 X15.2401 Y50.8000
G01 Z-2.0000
G01 Z0
G00 Z2.0000
G00 X12.7001 Y50.8000
G01 Z-2.0000
G01 Z0
G00 Z2.0000
G00 X10.1601 Y50.8000
G01 Z-2.0000
G01 Z0
G00 Z2.0000
G00 X7.6201 Y50.8000
G01 Z-2.0000
G01 Z0
G00 Z2.0000
G00 X5.0801 Y50.8000
G01 Z-2.0000
G01 Z0
G00 Z2.0000
G00 X5.0801 Y58.4481
G01 Z-2.0000
G01 Z0
G00 Z2.0000
G00 X7.6201 Y58.4481
G01 Z-2.0000
G01 Z0
G00 Z2.0000
G00 X10.1601 Y58.4481
G01 Z-2.0000
G01 Z0
G00 Z2.0000
G00 X12.7001 Y58.4481
G01 Z-2.0000
G01 Z0
G00 Z2.0000
G00 X15.2401 Y58.4481
G01 Z-2.0000
G01 Z0
G00 Z2.0000
G00 X17.7800 Y58.4481
G01 Z-2.0000
G01 Z0
G00 Z2.0000
G00 X5.0801 Y106.7081
G01 Z-2.0000
G01 Z0
G00 Z2.0000
G00 X7.6201 Y106.7081
G01 Z-2.0000
G01 Z0
G00 Z2.0000
G00 X10.1601 Y106.7081
G01 Z-2.0000
G01 Z0
G00 Z2.0000
G00 X12.7001 Y106.7081
G01 Z-2.0000
G01 Z0
G00 Z2.0000
G00 X15.2401 Y106.7081
G01 Z-2.0000
G01 Z0
G00 Z2.0000
G00 X17.7800 Y106.7081
G01 Z-2.0000
G01 Z0
G00 Z2.0000
G00 X20.3201 Y106.7081
G01 Z-2.0000
G01 Z0
G00 Z2.0000
G00 X22.8601 Y106.7081
G01 Z-2.0000
G01 Z0
G00 Z2.0000
G00 X26.9241 Y106.7081
G01 Z-2.0000
G01 Z0
G00 Z2.0000
G00 X29.4640 Y106.7081
G01 Z-2.0000
G01 Z0
G00 Z2.0000
G00 X32.0041 Y106.7081
G01 Z-2.0000
G01 Z0
G00 Z2.0000
G00 X34.5441 Y106.7081
G01 Z-2.0000
G01 Z0
G00 Z2.0000
G00 X37.0840 Y106.7081
G01 Z-2.0000
G01 Z0
G00 Z2.0000
G00 X39.6241 Y106.7081
G01 Z-2.0000
G01 Z0
G00 Z2.0000
G00 X42.1641 Y106.7081
G01 Z-2.0000
G01 Z0
G00 Z2.0000
G00 X44.7041 Y106.7081
G01 Z-2.0000
G01 Z0
G00 Z2.0000
G00 X47.2440 Y106.7081
G01 Z-2.0000
G01 Z0
G00 Z2.0000
G00 X49.7840 Y106.7081
G01 Z-2.0000
G01 Z0
G00 Z2.0000
G00 X22.8601 Y58.4481
G01 Z-2.0000
G01 Z0
G00 Z2.0000
G00 X25.4001 Y58.4481
G01 Z-2.0000
G01 Z0
G00 Z2.0000
G00 X27.9401 Y58.4481
G01 Z-2.0000
G01 Z0
G00 Z2.0000
G00 X30.4801 Y58.4481
G01 Z-2.0000
G01 Z0
G00 Z2.0000
G00 X33.0201 Y58.4481
G01 Z-2.0000
G01 Z0
G00 Z2.0000
G00 X35.5600 Y58.4481
G01 Z-2.0000
G01 Z0
G00 Z2.0000
G00 X38.1000 Y58.4481
G01 Z-2.0000
G01 Z0
G00 Z2.0000
G00 X40.6401 Y58.4481
G01 Z-2.0000
G01 Z0
G00 Z2.0000
G01 F75.00
M03
G00 X58.4709 Y41.1074
G01 Z-2.0000
G01 Z0
G00 Z2.0000
G00 X58.4709 Y36.1087
G01 Z-2.0000
G01 Z0
G00 Z2.0000
G00 X58.4709 Y92.0167
G01 Z-2.0000
G01 Z0
G00 Z2.0000
G00 X58.4709 Y97.0155
G01 Z-2.0000
G01 Z0
G00 Z2.0000
M05
G00 Z2.00

