(G-CODE GENERATED BY FLATCAM v8.993 - www.flatcam.org - Version Date: 2020/06/05)

(Name: teste-Cobre traseira.gbr_panelized_cutout_cnc)
(Type: G-code from Geometry)
(Units: MM)

(Created on segunda, 12 junho 2023 at 13:32)

(This preprocessor is the default preprocessor used by FlatCAM.)
(It is made to work with MACH3 compatible motion controllers.)

(TOOL DIAMETER: 1.5 mm)
(Feedrate_XY: 120.0 mm/min)
(Feedrate_Z: 60.0 mm/min)
(Feedrate rapids 1500.0 mm/min)

(Z_Cut: -2.0 mm)
(DepthPerCut: 0.2 mm <=>10 passes)
(Z_Move: 2.0 mm)
(Z Start: None mm)
(Z End: 15.0 mm)
(Steps per circle: 64)
(Preprocessor Geometry: default)

(X range:   -2.7479 ...   71.3279  mm)
(Y range:   -2.7479 ...  110.4130  mm)

(Spindle Speed: None RPM)
G21
G90
G94



G01 F120.00
G00 Z2.0000

M03
G00 X-0.7155 Y-2.6545
G01 F60.00
G01 Z-0.2000
G01 F120.00
G01 X-0.8798 Y-2.6046
G01 X-0.9722 Y-2.5716
G01 X-1.1309 Y-2.5059
G01 X-1.2196 Y-2.4639
G01 X-1.3711 Y-2.3829
G01 X-1.4553 Y-2.3325
G01 X-1.5980 Y-2.2371
G01 X-1.6769 Y-2.1786
G01 X-1.8096 Y-2.0697
G01 X-1.8823 Y-2.0038
G01 X-2.0038 Y-1.8823
G01 X-2.0697 Y-1.8096
G01 X-2.1786 Y-1.6769
G01 X-2.2371 Y-1.5980
G01 X-2.3325 Y-1.4553
G01 X-2.3829 Y-1.3711
G01 X-2.4639 Y-1.2196
G01 X-2.5059 Y-1.1309
G01 X-2.5716 Y-0.9722
G01 X-2.6046 Y-0.8798
G01 X-2.6545 Y-0.7155
G01 X-2.6783 Y-0.6203
G01 X-2.7118 Y-0.4519
G01 X-2.7262 Y-0.3548
G01 X-2.7431 Y-0.1839
G01 X-2.7479 Y-0.0859
G01 X-2.7479 Y0.0859
G01 X-2.7431 Y0.1839
G01 X-2.7262 Y0.3548
G01 X-2.7118 Y0.4519
G01 X-2.6783 Y0.6203
G01 X-2.6545 Y0.7155
G01 X-2.6046 Y0.8798
G01 X-2.5716 Y0.9722
G01 X-2.5059 Y1.1309
G01 X-2.4639 Y1.2196
G01 X-2.3829 Y1.3711
G01 X-2.3325 Y1.4552
G01 X-2.2371 Y1.5980
G01 X-2.1786 Y1.6769
G01 X-2.0697 Y1.8096
G01 X-2.0038 Y1.8823
G01 X-1.8823 Y2.0038
G01 X-1.8096 Y2.0697
G01 X-1.6769 Y2.1786
G01 X-1.5980 Y2.2371
G01 X-1.4553 Y2.3325
G01 X-1.3711 Y2.3829
G01 X-1.2196 Y2.4639
G01 X-1.1309 Y2.5059
G01 X-0.9722 Y2.5716
G01 X-0.8798 Y2.6046
G01 X-0.7155 Y2.6545
G01 X-0.6203 Y2.6783
G01 X-0.4519 Y2.7118
G01 X-0.3548 Y2.7262
G01 X-0.1839 Y2.7431
G01 X-0.0859 Y2.7479
G01 X0.0859 Y2.7479
G01 X0.1839 Y2.7431
G01 X0.3548 Y2.7262
G01 X0.4519 Y2.7118
G01 X0.6203 Y2.6783
G01 X0.6545 Y2.6698
G01 X-0.6920 Y4.0163
G01 X-0.8172 Y4.1556
G01 X-0.8341 Y4.1766
G01 X-0.9352 Y4.3154
G01 X-1.0221 Y4.4635
G01 X-1.0942 Y4.6194
G01 X-1.1506 Y4.7817
G01 X-1.1706 Y4.8498
G01 X-1.2099 Y5.0116
G01 X-1.2336 Y5.1765
G01 X-1.2415 Y5.3428
G01 X-1.2415 Y37.5832
G01 X-1.2315 Y37.7702
G01 X-1.2286 Y37.7970
G01 X-1.2019 Y37.9667
G01 X-1.1587 Y38.1329
G01 X-1.0994 Y38.2941
G01 X-1.0245 Y38.4487
G01 X-0.9905 Y38.5110
G01 X-0.9038 Y38.6532
G01 X-0.8040 Y38.7865
G01 X-0.6920 Y38.9097
G01 X1.2985 Y40.9002
G01 X1.2985 Y51.5532
G01 X1.3085 Y51.7402
G01 X1.3114 Y51.7670
G01 X1.3381 Y51.9367
G01 X1.3813 Y52.1029
G01 X1.4406 Y52.2641
G01 X1.5155 Y52.4187
G01 X1.5495 Y52.4810
G01 X1.6362 Y52.6232
G01 X1.7360 Y52.7565
G01 X1.8480 Y52.8797
G01 X3.0003 Y54.0320
G01 X3.1396 Y54.1572
G01 X3.1606 Y54.1741
G01 X3.2994 Y54.2752
G01 X3.4475 Y54.3621
G01 X3.6034 Y54.4342
G01 X3.7657 Y54.4906
G01 X3.8338 Y54.5106
G01 X3.9956 Y54.5499
G01 X4.1605 Y54.5736
G01 X4.3268 Y54.5815
G01 X66.1323 Y54.5815
G01 X66.1278 Y54.5900
G01 X3.1745 Y54.5900
G01 X2.9874 Y54.6000
G01 X2.8025 Y54.6300
G01 X2.7502 Y54.6414
G01 X2.5814 Y54.6870
G01 X2.5113 Y54.7137
G01 X2.5059 Y54.7006
G01 X2.4639 Y54.6119
G01 X2.3829 Y54.4604
G01 X2.3325 Y54.3762
G01 X2.2371 Y54.2335
G01 X2.1786 Y54.1546
G01 X2.0697 Y54.0219
G01 X2.0038 Y53.9492
G01 X1.8823 Y53.8277
G01 X1.8096 Y53.7618
G01 X1.6769 Y53.6529
G01 X1.5980 Y53.5944
G01 X1.4552 Y53.4990
G01 X1.3711 Y53.4486
G01 X1.2196 Y53.3676
G01 X1.1309 Y53.3256
G01 X0.9722 Y53.2599
G01 X0.8798 Y53.2269
G01 X0.7155 Y53.1770
G01 X0.6203 Y53.1532
G01 X0.4519 Y53.1197
G01 X0.3548 Y53.1053
G01 X0.1839 Y53.0884
G01 X0.0859 Y53.0836
G01 X-0.0859 Y53.0836
G01 X-0.1839 Y53.0884
G01 X-0.3548 Y53.1053
G01 X-0.4519 Y53.1197
G01 X-0.6203 Y53.1532
G01 X-0.7155 Y53.1770
G01 X-0.8798 Y53.2269
G01 X-0.9722 Y53.2599
G01 X-1.1309 Y53.3256
G01 X-1.2196 Y53.3676
G01 X-1.3711 Y53.4486
G01 X-1.4553 Y53.4990
G01 X-1.5980 Y53.5944
G01 X-1.6769 Y53.6529
G01 X-1.8096 Y53.7618
G01 X-1.8823 Y53.8277
G01 X-2.0038 Y53.9492
G01 X-2.0697 Y54.0219
G01 X-2.1786 Y54.1546
G01 X-2.2371 Y54.2335
G01 X-2.3325 Y54.3762
G01 X-2.3829 Y54.4604
G01 X-2.4639 Y54.6119
G01 X-2.5059 Y54.7006
G01 X-2.5716 Y54.8593
G01 X-2.6046 Y54.9517
G01 X-2.6545 Y55.1160
G01 X-2.6783 Y55.2112
G01 X-2.7118 Y55.3796
G01 X-2.7262 Y55.4767
G01 X-2.7431 Y55.6476
G01 X-2.7479 Y55.7456
G01 X-2.7479 Y55.9174
G01 X-2.7431 Y56.0154
G01 X-2.7262 Y56.1863
G01 X-2.7118 Y56.2834
G01 X-2.6783 Y56.4518
G01 X-2.6545 Y56.5470
G01 X-2.6046 Y56.7113
G01 X-2.5716 Y56.8037
G01 X-2.5059 Y56.9624
G01 X-2.4639 Y57.0511
G01 X-2.3829 Y57.2026
G01 X-2.3325 Y57.2867
G01 X-2.2371 Y57.4295
G01 X-2.1786 Y57.5084
G01 X-2.0697 Y57.6411
G01 X-2.0038 Y57.7138
G01 X-1.8823 Y57.8353
G01 X-1.8096 Y57.9012
G01 X-1.6769 Y58.0101
G01 X-1.5980 Y58.0686
G01 X-1.4553 Y58.1640
G01 X-1.3711 Y58.2144
G01 X-1.2196 Y58.2954
G01 X-1.1309 Y58.3374
G01 X-0.9722 Y58.4031
G01 X-0.8798 Y58.4361
G01 X-0.7155 Y58.4860
G01 X-0.6203 Y58.5098
G01 X-0.4519 Y58.5433
G01 X-0.3548 Y58.5577
G01 X-0.1839 Y58.5746
G01 X-0.0859 Y58.5794
G01 X0.0859 Y58.5794
G01 X0.1839 Y58.5746
G01 X0.3548 Y58.5577
G01 X0.4519 Y58.5433
G01 X0.6203 Y58.5098
G01 X0.6545 Y58.5013
G01 X-0.6920 Y59.8478
G01 X-0.8172 Y59.9871
G01 X-0.8341 Y60.0081
G01 X-0.9352 Y60.1469
G01 X-1.0221 Y60.2950
G01 X-1.0942 Y60.4509
G01 X-1.1506 Y60.6132
G01 X-1.1706 Y60.6813
G01 X-1.2099 Y60.8431
G01 X-1.2336 Y61.0080
G01 X-1.2415 Y61.1743
G01 X-1.2415 Y93.4147
G01 X-1.2315 Y93.6017
G01 X-1.2286 Y93.6285
G01 X-1.2019 Y93.7982
G01 X-1.1587 Y93.9644
G01 X-1.0994 Y94.1256
G01 X-1.0245 Y94.2802
G01 X-0.9905 Y94.3425
G01 X-0.9038 Y94.4847
G01 X-0.8040 Y94.6180
G01 X-0.6920 Y94.7412
G01 X1.2985 Y96.7317
G01 X1.2985 Y107.3847
G01 X1.3085 Y107.5717
G01 X1.3114 Y107.5985
G01 X1.3381 Y107.7682
G01 X1.3813 Y107.9344
G01 X1.4406 Y108.0956
G01 X1.5155 Y108.2502
G01 X1.5495 Y108.3125
G01 X1.6362 Y108.4547
G01 X1.7360 Y108.5880
G01 X1.8480 Y108.7112
G01 X3.0003 Y109.8635
G01 X3.1396 Y109.9887
G01 X3.1606 Y110.0056
G01 X3.2994 Y110.1067
G01 X3.4475 Y110.1936
G01 X3.6034 Y110.2657
G01 X3.7657 Y110.3221
G01 X3.8338 Y110.3421
G01 X3.9956 Y110.3814
G01 X4.1605 Y110.4051
G01 X4.3268 Y110.4130
G01 X67.9455 Y110.4130
G01 X68.1326 Y110.4030
G01 X68.3175 Y110.3730
G01 X68.3698 Y110.3616
G01 X68.5386 Y110.3160
G01 X68.7020 Y110.2537
G01 X68.8584 Y110.1754
G01 X69.0061 Y110.0819
G01 X69.1438 Y109.9742
G01 X69.1975 Y109.9277
G01 X69.3180 Y109.8128
G01 X69.4271 Y109.6869
G01 X69.5237 Y109.5512
G01 X69.6070 Y109.4070
G01 X69.6761 Y109.2555
G01 X69.7306 Y109.0981
G01 X69.7506 Y109.0300
G01 X69.7899 Y108.8682
G01 X69.8136 Y108.7033
G01 X69.8215 Y108.5370
G01 X69.8215 Y84.9183
G01 X69.8118 Y84.7347
G01 X69.7830 Y84.5531
G01 X69.7720 Y84.5016
G01 X69.7528 Y84.4295
G01 X69.7899 Y84.2767
G01 X69.8136 Y84.1119
G01 X69.8215 Y83.9455
G01 X69.8215 Y58.2837
G01 X69.9511 Y58.2144
G01 X70.0352 Y58.1640
G01 X70.1780 Y58.0686
G01 X70.2569 Y58.0101
G01 X70.3896 Y57.9012
G01 X70.4623 Y57.8353
G01 X70.5838 Y57.7138
G01 X70.6497 Y57.6411
G01 X70.7586 Y57.5084
G01 X70.8171 Y57.4295
G01 X70.9125 Y57.2867
G01 X70.9629 Y57.2026
G01 X71.0439 Y57.0511
G01 X71.0859 Y56.9624
G01 X71.1516 Y56.8037
G01 X71.1846 Y56.7113
G01 X71.2345 Y56.5470
G01 X71.2583 Y56.4518
G01 X71.2918 Y56.2834
G01 X71.3062 Y56.1863
G01 X71.3231 Y56.0154
G01 X71.3279 Y55.9174
G01 X71.3279 Y55.7456
G01 X71.3231 Y55.6476
G01 X71.3062 Y55.4767
G01 X71.2918 Y55.3796
G01 X71.2583 Y55.2112
G01 X71.2345 Y55.1160
G01 X71.1846 Y54.9517
G01 X71.1516 Y54.8593
G01 X71.0859 Y54.7006
G01 X71.0439 Y54.6119
G01 X70.9629 Y54.4604
G01 X70.9125 Y54.3762
G01 X70.8171 Y54.2335
G01 X70.7586 Y54.1546
G01 X70.6497 Y54.0219
G01 X70.5838 Y53.9492
G01 X70.4623 Y53.8277
G01 X70.3896 Y53.7618
G01 X70.2569 Y53.6529
G01 X70.1780 Y53.5944
G01 X70.0352 Y53.4990
G01 X69.9511 Y53.4486
G01 X69.7996 Y53.3676
G01 X69.7103 Y53.3254
G01 X69.7306 Y53.2666
G01 X69.7506 Y53.1985
G01 X69.7899 Y53.0367
G01 X69.8136 Y52.8718
G01 X69.8215 Y52.7055
G01 X69.8215 Y29.0868
G01 X69.8118 Y28.9032
G01 X69.7830 Y28.7216
G01 X69.7720 Y28.6701
G01 X69.7528 Y28.5980
G01 X69.7899 Y28.4452
G01 X69.8136 Y28.2804
G01 X69.8215 Y28.1140
G01 X69.8215 Y2.4522
G01 X69.9511 Y2.3829
G01 X70.0352 Y2.3325
G01 X70.1780 Y2.2371
G01 X70.2569 Y2.1786
G01 X70.3896 Y2.0697
G01 X70.4623 Y2.0038
G01 X70.5838 Y1.8823
G01 X70.6497 Y1.8096
G01 X70.7586 Y1.6769
G01 X70.8171 Y1.5980
G01 X70.9125 Y1.4552
G01 X70.9629 Y1.3711
G01 X71.0439 Y1.2196
G01 X71.0859 Y1.1309
G01 X71.1516 Y0.9722
G01 X71.1846 Y0.8798
G01 X71.2345 Y0.7155
G01 X71.2583 Y0.6203
G01 X71.2918 Y0.4519
G01 X71.3062 Y0.3548
G01 X71.3231 Y0.1839
G01 X71.3279 Y0.0859
G01 X71.3279 Y-0.0859
G01 X71.3231 Y-0.1839
G01 X71.3062 Y-0.3548
G01 X71.2918 Y-0.4519
G01 X71.2583 Y-0.6203
G01 X71.2345 Y-0.7155
G01 X71.1846 Y-0.8798
G01 X71.1516 Y-0.9722
G01 X71.0859 Y-1.1309
G01 X71.0439 Y-1.2196
G01 X70.9629 Y-1.3711
G01 X70.9125 Y-1.4553
G01 X70.8171 Y-1.5980
G01 X70.7586 Y-1.6769
G01 X70.6497 Y-1.8096
G01 X70.5838 Y-1.8823
G01 X70.4623 Y-2.0038
G01 X70.3896 Y-2.0697
G01 X70.2569 Y-2.1786
G01 X70.1780 Y-2.2371
G01 X70.0352 Y-2.3325
G01 X69.9511 Y-2.3829
G01 X69.7996 Y-2.4639
G01 X69.7109 Y-2.5059
G01 X69.5522 Y-2.5716
G01 X69.4598 Y-2.6046
G01 X69.2955 Y-2.6545
G01 X69.2003 Y-2.6783
G01 X69.0319 Y-2.7118
G01 X68.9348 Y-2.7262
G01 X68.7639 Y-2.7431
G01 X68.6659 Y-2.7479
G01 X68.4941 Y-2.7479
G01 X68.3961 Y-2.7431
G01 X68.2252 Y-2.7262
G01 X68.1281 Y-2.7118
G01 X67.9597 Y-2.6783
G01 X67.8645 Y-2.6545
G01 X67.7002 Y-2.6046
G01 X67.6078 Y-2.5716
G01 X67.4491 Y-2.5059
G01 X67.3604 Y-2.4639
G01 X67.2089 Y-2.3829
G01 X67.1247 Y-2.3325
G01 X66.9820 Y-2.2371
G01 X66.9031 Y-2.1786
G01 X66.7704 Y-2.0697
G01 X66.6977 Y-2.0038
G01 X66.5762 Y-1.8823
G01 X66.5103 Y-1.8096
G01 X66.4014 Y-1.6769
G01 X66.3429 Y-1.5980
G01 X66.2475 Y-1.4553
G01 X66.1971 Y-1.3711
G01 X66.1278 Y-1.2415
G01 X3.1745 Y-1.2415
G01 X2.9874 Y-1.2315
G01 X2.8025 Y-1.2015
G01 X2.7502 Y-1.1901
G01 X2.5814 Y-1.1445
G01 X2.5113 Y-1.1178
G01 X2.5059 Y-1.1309
G01 X2.4639 Y-1.2196
G01 X2.3829 Y-1.3711
G01 X2.3325 Y-1.4553
G01 X2.2371 Y-1.5980
G01 X2.1786 Y-1.6769
G01 X2.0697 Y-1.8096
G01 X2.0038 Y-1.8823
G01 X1.8823 Y-2.0038
G01 X1.8096 Y-2.0697
G01 X1.6769 Y-2.1786
G01 X1.5980 Y-2.2371
G01 X1.4552 Y-2.3325
G01 X1.3711 Y-2.3829
G01 X1.2196 Y-2.4639
G01 X1.1309 Y-2.5059
G01 X0.9722 Y-2.5716
G01 X0.8798 Y-2.6046
G01 X0.7155 Y-2.6545
G01 X0.6203 Y-2.6783
G01 X0.4519 Y-2.7118
G01 X0.3548 Y-2.7262
G01 X0.1839 Y-2.7431
G01 X0.0859 Y-2.7479
G01 X-0.0859 Y-2.7479
G01 X-0.1839 Y-2.7431
G01 X-0.3548 Y-2.7262
G01 X-0.4519 Y-2.7118
G01 X-0.6203 Y-2.6783
G01 X-0.7155 Y-2.6545
G00 X-0.7155 Y-2.6545
G01 F60.00
G01 Z-0.4000
G01 F120.00
G01 X-0.8798 Y-2.6046
G01 X-0.9722 Y-2.5716
G01 X-1.1309 Y-2.5059
G01 X-1.2196 Y-2.4639
G01 X-1.3711 Y-2.3829
G01 X-1.4553 Y-2.3325
G01 X-1.5980 Y-2.2371
G01 X-1.6769 Y-2.1786
G01 X-1.8096 Y-2.0697
G01 X-1.8823 Y-2.0038
G01 X-2.0038 Y-1.8823
G01 X-2.0697 Y-1.8096
G01 X-2.1786 Y-1.6769
G01 X-2.2371 Y-1.5980
G01 X-2.3325 Y-1.4553
G01 X-2.3829 Y-1.3711
G01 X-2.4639 Y-1.2196
G01 X-2.5059 Y-1.1309
G01 X-2.5716 Y-0.9722
G01 X-2.6046 Y-0.8798
G01 X-2.6545 Y-0.7155
G01 X-2.6783 Y-0.6203
G01 X-2.7118 Y-0.4519
G01 X-2.7262 Y-0.3548
G01 X-2.7431 Y-0.1839
G01 X-2.7479 Y-0.0859
G01 X-2.7479 Y0.0859
G01 X-2.7431 Y0.1839
G01 X-2.7262 Y0.3548
G01 X-2.7118 Y0.4519
G01 X-2.6783 Y0.6203
G01 X-2.6545 Y0.7155
G01 X-2.6046 Y0.8798
G01 X-2.5716 Y0.9722
G01 X-2.5059 Y1.1309
G01 X-2.4639 Y1.2196
G01 X-2.3829 Y1.3711
G01 X-2.3325 Y1.4552
G01 X-2.2371 Y1.5980
G01 X-2.1786 Y1.6769
G01 X-2.0697 Y1.8096
G01 X-2.0038 Y1.8823
G01 X-1.8823 Y2.0038
G01 X-1.8096 Y2.0697
G01 X-1.6769 Y2.1786
G01 X-1.5980 Y2.2371
G01 X-1.4553 Y2.3325
G01 X-1.3711 Y2.3829
G01 X-1.2196 Y2.4639
G01 X-1.1309 Y2.5059
G01 X-0.9722 Y2.5716
G01 X-0.8798 Y2.6046
G01 X-0.7155 Y2.6545
G01 X-0.6203 Y2.6783
G01 X-0.4519 Y2.7118
G01 X-0.3548 Y2.7262
G01 X-0.1839 Y2.7431
G01 X-0.0859 Y2.7479
G01 X0.0859 Y2.7479
G01 X0.1839 Y2.7431
G01 X0.3548 Y2.7262
G01 X0.4519 Y2.7118
G01 X0.6203 Y2.6783
G01 X0.6545 Y2.6698
G01 X-0.6920 Y4.0163
G01 X-0.8172 Y4.1556
G01 X-0.8341 Y4.1766
G01 X-0.9352 Y4.3154
G01 X-1.0221 Y4.4635
G01 X-1.0942 Y4.6194
G01 X-1.1506 Y4.7817
G01 X-1.1706 Y4.8498
G01 X-1.2099 Y5.0116
G01 X-1.2336 Y5.1765
G01 X-1.2415 Y5.3428
G01 X-1.2415 Y37.5832
G01 X-1.2315 Y37.7702
G01 X-1.2286 Y37.7970
G01 X-1.2019 Y37.9667
G01 X-1.1587 Y38.1329
G01 X-1.0994 Y38.2941
G01 X-1.0245 Y38.4487
G01 X-0.9905 Y38.5110
G01 X-0.9038 Y38.6532
G01 X-0.8040 Y38.7865
G01 X-0.6920 Y38.9097
G01 X1.2985 Y40.9002
G01 X1.2985 Y51.5532
G01 X1.3085 Y51.7402
G01 X1.3114 Y51.7670
G01 X1.3381 Y51.9367
G01 X1.3813 Y52.1029
G01 X1.4406 Y52.2641
G01 X1.5155 Y52.4187
G01 X1.5495 Y52.4810
G01 X1.6362 Y52.6232
G01 X1.7360 Y52.7565
G01 X1.8480 Y52.8797
G01 X3.0003 Y54.0320
G01 X3.1396 Y54.1572
G01 X3.1606 Y54.1741
G01 X3.2994 Y54.2752
G01 X3.4475 Y54.3621
G01 X3.6034 Y54.4342
G01 X3.7657 Y54.4906
G01 X3.8338 Y54.5106
G01 X3.9956 Y54.5499
G01 X4.1605 Y54.5736
G01 X4.3268 Y54.5815
G01 X66.1323 Y54.5815
G01 X66.1278 Y54.5900
G01 X3.1745 Y54.5900
G01 X2.9874 Y54.6000
G01 X2.8025 Y54.6300
G01 X2.7502 Y54.6414
G01 X2.5814 Y54.6870
G01 X2.5113 Y54.7137
G01 X2.5059 Y54.7006
G01 X2.4639 Y54.6119
G01 X2.3829 Y54.4604
G01 X2.3325 Y54.3762
G01 X2.2371 Y54.2335
G01 X2.1786 Y54.1546
G01 X2.0697 Y54.0219
G01 X2.0038 Y53.9492
G01 X1.8823 Y53.8277
G01 X1.8096 Y53.7618
G01 X1.6769 Y53.6529
G01 X1.5980 Y53.5944
G01 X1.4552 Y53.4990
G01 X1.3711 Y53.4486
G01 X1.2196 Y53.3676
G01 X1.1309 Y53.3256
G01 X0.9722 Y53.2599
G01 X0.8798 Y53.2269
G01 X0.7155 Y53.1770
G01 X0.6203 Y53.1532
G01 X0.4519 Y53.1197
G01 X0.3548 Y53.1053
G01 X0.1839 Y53.0884
G01 X0.0859 Y53.0836
G01 X-0.0859 Y53.0836
G01 X-0.1839 Y53.0884
G01 X-0.3548 Y53.1053
G01 X-0.4519 Y53.1197
G01 X-0.6203 Y53.1532
G01 X-0.7155 Y53.1770
G01 X-0.8798 Y53.2269
G01 X-0.9722 Y53.2599
G01 X-1.1309 Y53.3256
G01 X-1.2196 Y53.3676
G01 X-1.3711 Y53.4486
G01 X-1.4553 Y53.4990
G01 X-1.5980 Y53.5944
G01 X-1.6769 Y53.6529
G01 X-1.8096 Y53.7618
G01 X-1.8823 Y53.8277
G01 X-2.0038 Y53.9492
G01 X-2.0697 Y54.0219
G01 X-2.1786 Y54.1546
G01 X-2.2371 Y54.2335
G01 X-2.3325 Y54.3762
G01 X-2.3829 Y54.4604
G01 X-2.4639 Y54.6119
G01 X-2.5059 Y54.7006
G01 X-2.5716 Y54.8593
G01 X-2.6046 Y54.9517
G01 X-2.6545 Y55.1160
G01 X-2.6783 Y55.2112
G01 X-2.7118 Y55.3796
G01 X-2.7262 Y55.4767
G01 X-2.7431 Y55.6476
G01 X-2.7479 Y55.7456
G01 X-2.7479 Y55.9174
G01 X-2.7431 Y56.0154
G01 X-2.7262 Y56.1863
G01 X-2.7118 Y56.2834
G01 X-2.6783 Y56.4518
G01 X-2.6545 Y56.5470
G01 X-2.6046 Y56.7113
G01 X-2.5716 Y56.8037
G01 X-2.5059 Y56.9624
G01 X-2.4639 Y57.0511
G01 X-2.3829 Y57.2026
G01 X-2.3325 Y57.2867
G01 X-2.2371 Y57.4295
G01 X-2.1786 Y57.5084
G01 X-2.0697 Y57.6411
G01 X-2.0038 Y57.7138
G01 X-1.8823 Y57.8353
G01 X-1.8096 Y57.9012
G01 X-1.6769 Y58.0101
G01 X-1.5980 Y58.0686
G01 X-1.4553 Y58.1640
G01 X-1.3711 Y58.2144
G01 X-1.2196 Y58.2954
G01 X-1.1309 Y58.3374
G01 X-0.9722 Y58.4031
G01 X-0.8798 Y58.4361
G01 X-0.7155 Y58.4860
G01 X-0.6203 Y58.5098
G01 X-0.4519 Y58.5433
G01 X-0.3548 Y58.5577
G01 X-0.1839 Y58.5746
G01 X-0.0859 Y58.5794
G01 X0.0859 Y58.5794
G01 X0.1839 Y58.5746
G01 X0.3548 Y58.5577
G01 X0.4519 Y58.5433
G01 X0.6203 Y58.5098
G01 X0.6545 Y58.5013
G01 X-0.6920 Y59.8478
G01 X-0.8172 Y59.9871
G01 X-0.8341 Y60.0081
G01 X-0.9352 Y60.1469
G01 X-1.0221 Y60.2950
G01 X-1.0942 Y60.4509
G01 X-1.1506 Y60.6132
G01 X-1.1706 Y60.6813
G01 X-1.2099 Y60.8431
G01 X-1.2336 Y61.0080
G01 X-1.2415 Y61.1743
G01 X-1.2415 Y93.4147
G01 X-1.2315 Y93.6017
G01 X-1.2286 Y93.6285
G01 X-1.2019 Y93.7982
G01 X-1.1587 Y93.9644
G01 X-1.0994 Y94.1256
G01 X-1.0245 Y94.2802
G01 X-0.9905 Y94.3425
G01 X-0.9038 Y94.4847
G01 X-0.8040 Y94.6180
G01 X-0.6920 Y94.7412
G01 X1.2985 Y96.7317
G01 X1.2985 Y107.3847
G01 X1.3085 Y107.5717
G01 X1.3114 Y107.5985
G01 X1.3381 Y107.7682
G01 X1.3813 Y107.9344
G01 X1.4406 Y108.0956
