(G-CODE GENERATED BY FLATCAM v8.993 - www.flatcam.org - Version Date: 2020/06/05)

(Name: teste-Cobre traseira.gbr_panelized_0.5000_iso_cnc)
(Type: G-code from Geometry)
(Units: MM)

(Created on segunda, 12 junho 2023 at 13:16)

(This preprocessor is the default preprocessor used by FlatCAM.)
(It is made to work with MACH3 compatible motion controllers.)

(TOOL DIAMETER: 0.5 mm)
(Feedrate_XY: 170.0 mm/min)
(Feedrate_Z: 60.0 mm/min)
(Feedrate rapids 1500.0 mm/min)

(Z_Cut: -0.05 mm)
(Z_Move: 2.0 mm)
(Z Start: None mm)
(Z End: 15.0 mm)
(Steps per circle: 64)
(Preprocessor Geometry: default)

(X range:   -1.2500 ...   69.8300  mm)
(Y range:   -1.2500 ...  108.9130  mm)

(Spindle Speed: None RPM)
G21
G90
G94



G01 F170.00
G00 Z2.0000

M03
G00 X0.2499 Y-1.2247
G01 F60.00
G01 Z-0.0500
G01 F170.00
G01 X0.3510 Y-1.1994
G01 X0.3629 Y-1.1962
G01 X0.3745 Y-1.1923
G01 X0.4669 Y-1.1593
G01 X0.4784 Y-1.1548
G01 X0.4896 Y-1.1499
G01 X0.5783 Y-1.1079
G01 X0.5892 Y-1.1024
G01 X0.5999 Y-1.0964
G01 X0.6841 Y-1.0459
G01 X0.6945 Y-1.0393
G01 X0.7045 Y-1.0323
G01 X0.7833 Y-0.9738
G01 X0.7930 Y-0.9663
G01 X0.8023 Y-0.9582
G01 X0.8750 Y-0.8923
G01 X0.8839 Y-0.8839
G01 X0.8923 Y-0.8750
G01 X0.9582 Y-0.8023
G01 X0.9663 Y-0.7930
G01 X0.9738 Y-0.7833
G01 X1.0323 Y-0.7045
G01 X1.0393 Y-0.6945
G01 X1.0459 Y-0.6841
G01 X1.0964 Y-0.5999
G01 X1.1024 Y-0.5892
G01 X1.1079 Y-0.5783
G01 X1.1499 Y-0.4896
G01 X1.1548 Y-0.4784
G01 X1.1593 Y-0.4669
G01 X1.1923 Y-0.3745
G01 X1.1962 Y-0.3629
G01 X1.1994 Y-0.3510
G01 X1.2233 Y-0.2558
G01 X1.2260 Y-0.2439
G01 X1.2281 Y-0.2318
G01 X1.2425 Y-0.1347
G01 X1.2440 Y-0.1225
G01 X1.2449 Y-0.1103
G01 X1.2497 Y-0.0123
G01 X1.2500 Y-0.0000
G01 X1.2497 Y0.0123
G01 X1.2449 Y0.1103
G01 X1.2440 Y0.1225
G01 X1.2425 Y0.1347
G01 X1.2281 Y0.2318
G01 X1.2260 Y0.2439
G01 X1.2233 Y0.2558
G01 X1.1994 Y0.3510
G01 X1.1962 Y0.3629
G01 X1.1923 Y0.3745
G01 X1.1593 Y0.4669
G01 X1.1548 Y0.4784
G01 X1.1499 Y0.4896
G01 X1.1079 Y0.5783
G01 X1.1024 Y0.5892
G01 X1.0964 Y0.5999
G01 X1.0459 Y0.6841
G01 X1.0393 Y0.6945
G01 X1.0323 Y0.7045
G01 X0.9738 Y0.7833
G01 X0.9663 Y0.7930
G01 X0.9582 Y0.8023
G01 X0.8923 Y0.8750
G01 X0.8839 Y0.8839
G01 X0.8750 Y0.8923
G01 X0.8023 Y0.9582
G01 X0.7930 Y0.9663
G01 X0.7833 Y0.9738
G01 X0.7045 Y1.0323
G01 X0.6945 Y1.0393
G01 X0.6841 Y1.0459
G01 X0.5999 Y1.0964
G01 X0.5892 Y1.1024
G01 X0.5783 Y1.1079
G01 X0.4896 Y1.1499
G01 X0.4784 Y1.1548
G01 X0.4669 Y1.1593
G01 X0.3745 Y1.1923
G01 X0.3629 Y1.1962
G01 X0.3510 Y1.1994
G01 X0.2558 Y1.2233
G01 X0.2439 Y1.2260
G01 X0.2318 Y1.2281
G01 X0.1347 Y1.2425
G01 X0.1225 Y1.2440
G01 X0.1103 Y1.2449
G01 X0.0123 Y1.2497
G01 X-0.0000 Y1.2500
G01 X-0.0123 Y1.2497
G01 X-0.1103 Y1.2449
G01 X-0.1225 Y1.2440
G01 X-0.1347 Y1.2425
G01 X-0.2318 Y1.2281
G01 X-0.2439 Y1.2260
G01 X-0.2558 Y1.2233
G01 X-0.3510 Y1.1994
G01 X-0.3629 Y1.1962
G01 X-0.3745 Y1.1923
G01 X-0.4669 Y1.1593
G01 X-0.4784 Y1.1548
G01 X-0.4896 Y1.1499
G01 X-0.5783 Y1.1079
G01 X-0.5892 Y1.1024
G01 X-0.5999 Y1.0964
G01 X-0.6841 Y1.0459
G01 X-0.6945 Y1.0393
G01 X-0.7045 Y1.0323
G01 X-0.7833 Y0.9738
G01 X-0.7930 Y0.9663
G01 X-0.8023 Y0.9582
G01 X-0.8750 Y0.8923
G01 X-0.8839 Y0.8839
G01 X-0.8923 Y0.8750
G01 X-0.9582 Y0.8023
G01 X-0.9663 Y0.7930
G01 X-0.9738 Y0.7833
G01 X-1.0323 Y0.7045
G01 X-1.0393 Y0.6945
G01 X-1.0459 Y0.6841
G01 X-1.0964 Y0.5999
G01 X-1.1024 Y0.5892
G01 X-1.1079 Y0.5783
G01 X-1.1499 Y0.4896
G01 X-1.1548 Y0.4784
G01 X-1.1593 Y0.4669
G01 X-1.1923 Y0.3745
G01 X-1.1962 Y0.3629
G01 X-1.1994 Y0.3510
G01 X-1.2233 Y0.2558
G01 X-1.2260 Y0.2439
G01 X-1.2281 Y0.2318
G01 X-1.2425 Y0.1347
G01 X-1.2440 Y0.1225
G01 X-1.2449 Y0.1103
G01 X-1.2497 Y0.0123
G01 X-1.2500 Y-0.0000
G01 X-1.2497 Y-0.0123
G01 X-1.2449 Y-0.1103
G01 X-1.2440 Y-0.1225
G01 X-1.2425 Y-0.1347
G01 X-1.2281 Y-0.2318
G01 X-1.2260 Y-0.2439
G01 X-1.2233 Y-0.2558
G01 X-1.1994 Y-0.3510
G01 X-1.1962 Y-0.3629
G01 X-1.1923 Y-0.3745
G01 X-1.1593 Y-0.4669
G01 X-1.1548 Y-0.4784
G01 X-1.1499 Y-0.4896
G01 X-1.1079 Y-0.5783
G01 X-1.1024 Y-0.5892
G01 X-1.0964 Y-0.5999
G01 X-1.0459 Y-0.6841
G01 X-1.0393 Y-0.6945
G01 X-1.0323 Y-0.7045
G01 X-0.9738 Y-0.7833
G01 X-0.9663 Y-0.7930
G01 X-0.9582 Y-0.8023
G01 X-0.8923 Y-0.8750
G01 X-0.8839 Y-0.8839
G01 X-0.8750 Y-0.8923
G01 X-0.8023 Y-0.9582
G01 X-0.7930 Y-0.9663
G01 X-0.7833 Y-0.9738
G01 X-0.7045 Y-1.0323
G01 X-0.6945 Y-1.0393
G01 X-0.6841 Y-1.0459
G01 X-0.5999 Y-1.0964
G01 X-0.5892 Y-1.1024
G01 X-0.5783 Y-1.1079
G01 X-0.4896 Y-1.1499
G01 X-0.4784 Y-1.1548
G01 X-0.4669 Y-1.1593
G01 X-0.3745 Y-1.1923
G01 X-0.3629 Y-1.1962
G01 X-0.3510 Y-1.1994
G01 X-0.2558 Y-1.2233
G01 X-0.2439 Y-1.2260
G01 X-0.2318 Y-1.2281
G01 X-0.1347 Y-1.2425
G01 X-0.1225 Y-1.2440
G01 X-0.1103 Y-1.2449
G01 X-0.0123 Y-1.2497
G01 X-0.0000 Y-1.2500
G01 X0.0123 Y-1.2497
G01 X0.1103 Y-1.2449
G01 X0.1225 Y-1.2440
G01 X0.1347 Y-1.2425
G01 X0.2318 Y-1.2281
G01 X0.2499 Y-1.2247
G00 Z2.0000
G00 X5.3033 Y1.2967
G01 F60.00
G01 Z-0.0500
G01 F170.00
G01 X5.3914 Y1.3187
G01 X5.4033 Y1.3220
G01 X5.4149 Y1.3258
G01 X5.4947 Y1.3544
G01 X5.5062 Y1.3588
G01 X5.5174 Y1.3637
G01 X5.5940 Y1.4000
G01 X5.6049 Y1.4055
G01 X5.6156 Y1.4115
G01 X5.6883 Y1.4551
G01 X5.6987 Y1.4617
G01 X5.7087 Y1.4687
G01 X5.7768 Y1.5192
G01 X5.7865 Y1.5268
G01 X5.7958 Y1.5348
G01 X5.8585 Y1.5917
G01 X5.8674 Y1.6002
G01 X5.8759 Y1.6091
G01 X5.9328 Y1.6718
G01 X5.9408 Y1.6811
G01 X5.9484 Y1.6908
G01 X5.9989 Y1.7589
G01 X6.0059 Y1.7689
G01 X6.0125 Y1.7793
G01 X6.0561 Y1.8520
G01 X6.0621 Y1.8627
G01 X6.0676 Y1.8736
G01 X6.1039 Y1.9502
G01 X6.1088 Y1.9614
G01 X6.1132 Y1.9729
G01 X6.1418 Y2.0527
G01 X6.1456 Y2.0643
G01 X6.1489 Y2.0762
G01 X6.1695 Y2.1584
G01 X6.1722 Y2.1703
G01 X6.1743 Y2.1824
G01 X6.1867 Y2.2663
G01 X6.1882 Y2.2784
G01 X6.1891 Y2.2907
G01 X6.1935 Y2.3815
G01 X6.1935 Y2.6985
G01 X6.1891 Y2.7893
G01 X6.1882 Y2.8016
G01 X6.1867 Y2.8137
G01 X6.1733 Y2.9036
G01 X6.1695 Y2.9216
G01 X6.1489 Y3.0038
G01 X6.1456 Y3.0157
G01 X6.1418 Y3.0273
G01 X6.1132 Y3.1071
G01 X6.1088 Y3.1186
G01 X6.1039 Y3.1298
G01 X6.0676 Y3.2064
G01 X6.0621 Y3.2173
G01 X6.0561 Y3.2280
G01 X6.0125 Y3.3007
G01 X6.0059 Y3.3111
G01 X5.9989 Y3.3211
G01 X5.9484 Y3.3892
G01 X5.9408 Y3.3989
G01 X5.9328 Y3.4082
G01 X5.8759 Y3.4709
G01 X5.8674 Y3.4798
G01 X5.8585 Y3.4883
G01 X5.7958 Y3.5452
G01 X5.7865 Y3.5532
G01 X5.7768 Y3.5608
G01 X5.7087 Y3.6113
G01 X5.6987 Y3.6183
G01 X5.6883 Y3.6249
G01 X5.6156 Y3.6685
G01 X5.6049 Y3.6745
G01 X5.5940 Y3.6800
G01 X5.5174 Y3.7163
G01 X5.5062 Y3.7212
G01 X5.4947 Y3.7256
G01 X5.4149 Y3.7542
G01 X5.4033 Y3.7580
G01 X5.3914 Y3.7613
G01 X5.3092 Y3.7819
G01 X5.2973 Y3.7846
G01 X5.2852 Y3.7867
G01 X5.2013 Y3.7991
G01 X5.1892 Y3.8006
G01 X5.1769 Y3.8015
G01 X5.0923 Y3.8057
G01 X5.0800 Y3.8060
G01 X5.0677 Y3.8057
G01 X4.9831 Y3.8015
G01 X4.9708 Y3.8006
G01 X4.9587 Y3.7991
G01 X4.8688 Y3.7857
G01 X4.8508 Y3.7819
G01 X4.7686 Y3.7613
G01 X4.7567 Y3.7580
G01 X4.7451 Y3.7542
G01 X4.6653 Y3.7256
G01 X4.6538 Y3.7212
G01 X4.6426 Y3.7163
G01 X4.5660 Y3.6800
G01 X4.5551 Y3.6745
G01 X4.5444 Y3.6685
G01 X4.4717 Y3.6249
G01 X4.4613 Y3.6183
G01 X4.4513 Y3.6113
G01 X4.3832 Y3.5608
G01 X4.3735 Y3.5532
G01 X4.3642 Y3.5452
G01 X4.3015 Y3.4883
G01 X4.2926 Y3.4798
G01 X4.2841 Y3.4709
G01 X4.2272 Y3.4082
G01 X4.2192 Y3.3989
G01 X4.2116 Y3.3892
G01 X4.1611 Y3.3211
G01 X4.1541 Y3.3111
G01 X4.1475 Y3.3007
G01 X4.1039 Y3.2280
G01 X4.0979 Y3.2173
G01 X4.0924 Y3.2064
G01 X4.0561 Y3.1298
G01 X4.0512 Y3.1186
G01 X4.0468 Y3.1071
G01 X4.0182 Y3.0273
G01 X4.0144 Y3.0157
G01 X4.0111 Y3.0038
G01 X3.9905 Y2.9216
G01 X3.9878 Y2.9097
G01 X3.9857 Y2.8976
G01 X3.9733 Y2.8137
G01 X3.9718 Y2.8016
G01 X3.9709 Y2.7893
G01 X3.9665 Y2.6985
G01 X3.9665 Y2.3815
G01 X3.9709 Y2.2907
G01 X3.9718 Y2.2784
G01 X3.9733 Y2.2663
G01 X3.9867 Y2.1764
G01 X3.9905 Y2.1584
G01 X4.0111 Y2.0762
G01 X4.0144 Y2.0643
G01 X4.0182 Y2.0527
G01 X4.0468 Y1.9729
G01 X4.0512 Y1.9614
G01 X4.0561 Y1.9502
G01 X4.0924 Y1.8736
G01 X4.0979 Y1.8627
G01 X4.1039 Y1.8520
G01 X4.1475 Y1.7793
G01 X4.1541 Y1.7689
G01 X4.1611 Y1.7589
G01 X4.2116 Y1.6908
G01 X4.2192 Y1.6811
G01 X4.2272 Y1.6718
G01 X4.2841 Y1.6091
G01 X4.2926 Y1.6002
G01 X4.3015 Y1.5917
G01 X4.3642 Y1.5348
G01 X4.3735 Y1.5268
G01 X4.3832 Y1.5192
G01 X4.4513 Y1.4687
G01 X4.4613 Y1.4617
G01 X4.4717 Y1.4551
G01 X4.5444 Y1.4115
G01 X4.5551 Y1.4055
G01 X4.5660 Y1.4000
G01 X4.6426 Y1.3637
G01 X4.6538 Y1.3588
G01 X4.6653 Y1.3544
G01 X4.7451 Y1.3258
G01 X4.7567 Y1.3220
G01 X4.7686 Y1.3187
G01 X4.8508 Y1.2981
G01 X4.8627 Y1.2954
G01 X4.8748 Y1.2933
G01 X4.9587 Y1.2809
G01 X4.9708 Y1.2794
G01 X4.9831 Y1.2785
G01 X5.0677 Y1.2743
G01 X5.0800 Y1.2740
G01 X5.0923 Y1.2743
G01 X5.1769 Y1.2785
G01 X5.1892 Y1.2794
G01 X5.2013 Y1.2809
G01 X5.2852 Y1.2933
G01 X5.3033 Y1.2967
G00 Z2.0000
G00 X7.8433 Y1.2967
G01 F60.00
G01 Z-0.0500
G01 F170.00
G01 X7.9314 Y1.3187
G01 X7.9433 Y1.3220
G01 X7.9549 Y1.3258
G01 X8.0347 Y1.3544
G01 X8.0462 Y1.3588
G01 X8.0574 Y1.3637
G01 X8.1340 Y1.4000
G01 X8.1449 Y1.4055
G01 X8.1556 Y1.4115
G01 X8.2283 Y1.4551
G01 X8.2387 Y1.4617
G01 X8.2487 Y1.4687
G01 X8.3168 Y1.5192
G01 X8.3265 Y1.5268
G01 X8.3358 Y1.5348
G01 X8.3985 Y1.5917
G01 X8.4074 Y1.6002
G01 X8.4159 Y1.6091
G01 X8.4728 Y1.6718
G01 X8.4808 Y1.6811
G01 X8.4884 Y1.6908
G01 X8.5389 Y1.7589
G01 X8.5459 Y1.7689
G01 X8.5525 Y1.7793
G01 X8.5961 Y1.8520
G01 X8.6021 Y1.8627
G01 X8.6076 Y1.8736
G01 X8.6439 Y1.9502
G01 X8.6488 Y1.9614
G01 X8.6532 Y1.9729
G01 X8.6818 Y2.0527
G01 X8.6856 Y2.0643
G01 X8.6889 Y2.0762
G01 X8.7095 Y2.1584
G01 X8.7122 Y2.1703
G01 X8.7143 Y2.1824
G01 X8.7267 Y2.2663
G01 X8.7282 Y2.2784
G01 X8.7291 Y2.2907
G01 X8.7335 Y2.3815
G01 X8.7335 Y2.6985
G01 X8.7291 Y2.7893
G01 X8.7282 Y2.8016
G01 X8.7267 Y2.8137
G01 X8.7133 Y2.9036
G01 X8.7095 Y2.9216
G01 X8.6889 Y3.0038
G01 X8.6856 Y3.0157
G01 X8.6818 Y3.0273
G01 X8.6532 Y3.1071
G01 X8.6488 Y3.1186
G01 X8.6439 Y3.1298
G01 X8.6076 Y3.2064
G01 X8.6021 Y3.2173
G01 X8.5961 Y3.2280
G01 X8.5525 Y3.3007
G01 X8.5459 Y3.3111
G01 X8.5389 Y3.3211
G01 X8.4884 Y3.3892
G01 X8.4808 Y3.3989
G01 X8.4728 Y3.4082
G01 X8.4159 Y3.4709
G01 X8.4074 Y3.4798
G01 X8.3985 Y3.4883
G01 X8.3358 Y3.5452
G01 X8.3265 Y3.5532
G01 X8.3168 Y3.5608
G01 X8.2487 Y3.6113
G01 X8.2387 Y3.6183
G01 X8.2283 Y3.6249
G01 X8.1556 Y3.6685
G01 X8.1449 Y3.6745
G01 X8.1340 Y3.6800
G01 X8.0574 Y3.7163
G01 X8.0462 Y3.7212
G01 X8.0347 Y3.7256
G01 X7.9549 Y3.7542
G01 X7.9433 Y3.7580
G01 X7.9314 Y3.7613
G01 X7.8492 Y3.7819
G01 X7.8373 Y3.7846
G01 X7.8252 Y3.7867
G01 X7.7413 Y3.7991
G01 X7.7292 Y3.8006
G01 X7.7169 Y3.8015
G01 X7.6323 Y3.8057
G01 X7.6200 Y3.8060
G01 X7.6077 Y3.8057
G01 X7.5231 Y3.8015
G01 X7.5108 Y3.8006
G01 X7.4987 Y3.7991
G01 X7.4088 Y3.7857
G01 X7.3908 Y3.7819
G01 X7.3086 Y3.7613
G01 X7.2967 Y3.7580
G01 X7.2851 Y3.7542
G01 X7.2053 Y3.7256
G01 X7.1938 Y3.7212
G01 X7.1826 Y3.7163
G01 X7.1060 Y3.6800
G01 X7.0951 Y3.6745
G01 X7.0844 Y3.6685
G01 X7.0117 Y3.6249
G01 X7.0013 Y3.6183
G01 X6.9913 Y3.6113
G01 X6.9232 Y3.5608
G01 X6.9135 Y3.5532
G01 X6.9042 Y3.5452
G01 X6.8415 Y3.4883
G01 X6.8326 Y3.4798
G01 X6.8241 Y3.4709
G01 X6.7672 Y3.4082
G01 X6.7592 Y3.3989
G01 X6.7516 Y3.3892
G01 X6.7011 Y3.3211
G01 X6.6941 Y3.3111
G01 X6.6875 Y3.3007
G01 X6.6439 Y3.2280
G01 X6.6379 Y3.2173
G01 X6.6324 Y3.2064
G01 X6.5961 Y3.1298
G01 X6.5912 Y3.1186
G01 X6.5868 Y3.1071
G01 X6.5582 Y3.0273
G01 X6.5544 Y3.0157
G01 X6.5511 Y3.0038
G01 X6.5305 Y2.9216
G01 X6.5278 Y2.9097
G01 X6.5257 Y2.8976
G01 X6.5133 Y2.8137
G01 X6.5118 Y2.8016
G01 X6.5109 Y2.7893
G01 X6.5065 Y2.6985
G01 X6.5065 Y2.3815
G01 X6.5109 Y2.2907
G01 X6.5118 Y2.2784
G01 X6.5133 Y2.2663
G01 X6.5267 Y2.1764
G01 X6.5305 Y2.1584
G01 X6.5511 Y2.0762
G01 X6.5544 Y2.0643
G01 X6.5582 Y2.0527
G01 X6.5868 Y1.9729
G01 X6.5912 Y1.9614
G01 X6.5961 Y1.9502
G01 X6.6324 Y1.8736
G01 X6.6379 Y1.8627
G01 X6.6439 Y1.8520
G01 X6.6875 Y1.7793
G01 X6.6941 Y1.7689
G01 X6.7011 Y1.7589
G01 X6.7516 Y1.6908
G01 X6.7592 Y1.6811
G01 X6.7672 Y1.6718
G01 X6.8241 Y1.6091
G01 X6.8326 Y1.6002
G01 X6.8415 Y1.5917
G01 X6.9042 Y1.5348
G01 X6.9135 Y1.5268
G01 X6.9232 Y1.5192
G01 X6.9913 Y1.4687
G01 X7.0013 Y1.4617
G01 X7.0117 Y1.4551
G01 X7.0844 Y1.4115
G01 X7.0951 Y1.4055
G01 X7.1060 Y1.4000
G01 X7.1826 Y1.3637
G01 X7.1938 Y1.3588
G01 X7.2053 Y1.3544
G01 X7.2851 Y1.3258
G01 X7.2967 Y1.3220
G01 X7.3086 Y1.3187
G01 X7.3908 Y1.2981
G01 X7.4027 Y1.2954
G01 X7.4148 Y1.2933
G01 X7.4987 Y1.2809
G01 X7.5108 Y1.2794
G01 X7.5231 Y1.2785
G01 X7.6077 Y1.2743
G01 X7.6200 Y1.2740
G01 X7.6323 Y1.2743
G01 X7.7169 Y1.2785
G01 X7.7292 Y1.2794
G01 X7.7413 Y1.2809
G01 X7.8252 Y1.2933
G01 X7.8433 Y1.2967
G00 Z2.0000
G00 X10.3833 Y1.2967
G01 F60.00
G01 Z-0.0500
G01 F170.00
G01 X10.4714 Y1.3187
G01 X10.4833 Y1.3220
G01 X10.4949 Y1.3258
G01 X10.5747 Y1.3544
G01 X10.5862 Y1.3588
G01 X10.5974 Y1.3637
G01 X10.6740 Y1.4000
G01 X10.6849 Y1.4055
G01 X10.6956 Y1.4115
G01 X10.7683 Y1.4551
G01 X10.7787 Y1.4617
G01 X10.7887 Y1.4687
G01 X10.8568 Y1.5192
G01 X10.8665 Y1.5268
G01 X10.8758 Y1.5348
G01 X10.9385 Y1.5917
G01 X10.9474 Y1.6002
G01 X10.9559 Y1.6091
G01 X11.0128 Y1.6718
G01 X11.0208 Y1.6811
G01 X11.0284 Y1.6908
G01 X11.0789 Y1.7589
G01 X11.0859 Y1.7689
G01 X11.0925 Y1.7793
G01 X11.1361 Y1.8520
G01 X11.1421 Y1.8627
G01 X11.1476 Y1.8736
G01 X11.1839 Y1.9502
G01 X11.1888 Y1.9614
G01 X11.1932 Y1.9729
G01 X11.2218 Y2.0527
G01 X11.2256 Y2.0643
G01 X11.2289 Y2.0762
G01 X11.2495 Y2.1584
G01 X11.2522 Y2.1703
G01 X11.2543 Y2.1824
G01 X11.2667 Y2.2663
G01 X11.2682 Y2.2784
G01 X11.2691 Y2.2907
G01 X11.2735 Y2.3815
G01 X11.2735 Y2.6985
G01 X11.2691 Y2.7893
G01 X11.2682 Y2.8016
G01 X11.2667 Y2.8137
G01 X11.2533 Y2.9036
G01 X11.2495 Y2.9216
G01 X11.2289 Y3.0038
G01 X11.2256 Y3.0157
G01 X11.2218 Y3.0273
G01 X11.1932 Y3.1071
G01 X11.1888 Y3.1186
G01 X11.1839 Y3.1298
G01 X11.1476 Y3.2064
G01 X11.1421 Y3.2173
G01 X11.1361 Y3.2280
G01 X11.0925 Y3.3007
G01 X11.0859 Y3.3111
G01 X11.0789 Y3.3211
G01 X11.0284 Y3.3892
G01 X11.0208 Y3.3989
G01 X11.0128 Y3.4082
G01 X10.9559 Y3.4709
G01 X10.9474 Y3.4798
G01 X10.9385 Y3.4883
G01 X10.8758 Y3.5452
G01 X10.8665 Y3.5532
G01 X10.8568 Y3.5608
G01 X10.7887 Y3.6113
G01 X10.7787 Y3.6183
G01 X10.7683 Y3.6249
G01 X10.6956 Y3.6685
G01 X10.6849 Y3.6745
G01 X10.6740 Y3.6800
G01 X10.5974 Y3.7163
G01 X10.5862 Y3.7212
G01 X10.5747 Y3.7256
G01 X10.4949 Y3.7542
G01 X10.4833 Y3.7580
G01 X10.4714 Y3.7613
G01 X10.3892 Y3.7819
G01 X10.3773 Y3.7846
G01 X10.3652 Y3.7867
G01 X10.2813 Y3.7991
G01 X10.2692 Y3.8006
G01 X10.2569 Y3.8015
G01 X10.1723 Y3.8057
G01 X10.1600 Y3.8060
G01 X10.1477 Y3.8057
G01 X10.0631 Y3.8015
G01 X10.0508 Y3.8006
G01 X10.0387 Y3.7991
G01 X9.9488 Y3.7857
G01 X9.9308 Y3.7819
G01 X9.8486 Y3.7613
G01 X9.8367 Y3.7580
G01 X9.8251 Y3.7542
G01 X9.7453 Y3.7256
G01 X9.7338 Y3.7212
G01 X9.7226 Y3.7163
G01 X9.6460 Y3.6800
G01 X9.6351 Y3.6745
G01 X9.6244 Y3.6685
G01 X9.5517 Y3.6249
G01 X9.5413 Y3.6183
G01 X9.5313 Y3.6113
G01 X9.4632 Y3.5608
G01 X9.4535 Y3.5532
G01 X9.4442 Y3.5452
G01 X9.3815 Y3.4883
G01 X9.3726 Y3.4798
G01 X9.3641 Y3.4709
G01 X9.3072 Y3.4082
G01 X9.2992 Y3.3989
G01 X9.2916 Y3.3892
G01 X9.2411 Y3.3211
G01 X9.2341 Y3.3111
G01 X9.2275 Y3.3007
G01 X9.1839 Y3.2280
G01 X9.1779 Y3.2173
G01 X9.1724 Y3.2064
G01 X9.1361 Y3.1298
G01 X9.1312 Y3.1186
G01 X9.1268 Y3.1071
G01 X9.0982 Y3.0273
G01 X9.0944 Y3.0157
G01 X9.0911 Y3.0038
G01 X9.0705 Y2.9216
G01 X9.0678 Y2.9097
G01 X9.0657 Y2.8976
G01 X9.0533 Y2.8137
G01 X9.0518 Y2.8016
G01 X9.0509 Y2.7893
G01 X9.0465 Y2.6985
G01 X9.0465 Y2.3815
G01 X9.0509 Y2.2907
G01 X9.0518 Y2.2784
G01 X9.0533 Y2.2663
G01 X9.0667 Y2.1764
G01 X9.0705 Y2.1584
G01 X9.0911 Y2.0762
G01 X9.0944 Y2.0643
G01 X9.0982 Y2.0527
G01 X9.1268 Y1.9729
G01 X9.1312 Y1.9614
G01 X9.1361 Y1.9502
G01 X9.1724 Y1.8736
G01 X9.1779 Y1.8627
G01 X9.1839 Y1.8520
G01 X9.2275 Y1.7793
G01 X9.2341 Y1.7689
G01 X9.2411 Y1.7589
G01 X9.2916 Y1.6908
G01 X9.2992 Y1.6811
G01 X9.3072 Y1.6718
G01 X9.3641 Y1.6091
G01 X9.3726 Y1.6002
G01 X9.3815 Y1.5917
G01 X9.4442 Y1.5348
G01 X9.4535 Y1.5268
G01 X9.4632 Y1.5192
G01 X9.5313 Y1.4687
G01 X9.5413 Y1.4617
G01 X9.5517 Y1.4551
G01 X9.6244 Y1.4115
G01 X9.6351 Y1.4055
G01 X9.6460 Y1.4000
G01 X9.7226 Y1.3637
G01 X9.7338 Y1.3588
G01 X9.7453 Y1.3544
G01 X9.8251 Y1.3258
G01 X9.8367 Y1.3220
G01 X9.8486 Y1.3187
